assets/img/icons/location.svg

<svg width="13" height="16" viewBox="0 0 13 16" version="1.1" xmlns="http://www.w3.org/2000/svg" xmlns:xlink="http://www.w3.org/1999/xlink">
<title></title>
<desc>Created using Figma</desc>
<g id="Canvas" transform="matrix(1 0 0 1 149.5 473)">
<g id="location">
<g id="Combined-Shape">
<use xlink:href="#path0_stroke" transform="translate(-149 -472.5)" fill="#262626"/>
</g>
<g id="Oval-3">
<use xlink:href="#path1_stroke" transform="translate(-145 -468.5)" fill="#262626"/>
</g>
</g>
</g>
<defs>
<path id="path0_stroke" d="M 6 14.7859L 5.64303 15.136L 6 15.5L 6.35697 15.136L 6 14.7859ZM 10.2392 10.4636L 10.5962 10.8137L 10.2392 10.4636ZM 10.2392 1.79123L 10.5962 1.44113L 10.2392 1.79123ZM 1.76077 1.79123L 1.40381 1.44113L 1.76077 1.79123ZM 1.76077 10.4636L 2.11774 10.1135L 1.76077 10.4636ZM 6.35697 15.136L 10.5962 10.8137L 9.88226 10.1135L 5.64303 14.4358L 6.35697 15.136ZM 10.5962 10.8137C 13.1346 8.22554 13.1346 4.02929 10.5962 1.44113L 9.88226 2.14134C 12.0392 4.34061 12.0392 7.91423 9.88226 10.1135L 10.5962 10.8137ZM 10.5962 1.44113C 8.05779 -1.14704 3.94221 -1.14704 1.40381 1.44113L 2.11774 2.14134C 4.26412 -0.0471119 7.73588 -0.0471119 9.88226 2.14134L 10.5962 1.44113ZM 1.40381 1.44113C -1.1346 4.02929 -1.1346 8.22554 1.40381 10.8137L 2.11774 10.1135C -0.0392475 7.91423 -0.0392475 4.34061 2.11774 2.14134L 1.40381 1.44113ZM 1.40381 10.8137L 5.64303 15.136L 6.35697 14.4358L 2.11774 10.1135L 1.40381 10.8137Z"/>
<path id="path1_stroke" d="M 2 4.5C 3.38071 4.5 4.5 3.38071 4.5 2L 3.5 2C 3.5 2.82843 2.82843 3.5 2 3.5L 2 4.5ZM 4.5 2C 4.5 0.619288 3.38071 -0.5 2 -0.5L 2 0.5C 2.82843 0.5 3.5 1.17157 3.5 2L 4.5 2ZM 2 -0.5C 0.619288 -0.5 -0.5 0.619288 -0.5 2L 0.5 2C 0.5 1.17157 1.17157 0.5 2 0.5L 2 -0.5ZM -0.5 2C -0.5 3.38071 0.619288 4.5 2 4.5L 2 3.5C 1.17157 3.5 0.5 2.82843 0.5 2L -0.5 2Z"/>
</defs>
</svg>

<svg width="13" height="16" xmlns="http://www.w3.org/2000/svg" xmlns:xlink="http://www.w3.org/1999/xlink">  
    <path transform="translate(.5 .5)" fill="#262626" d="M6 14.7859l-.357.3501L6 15.5l.357-.364L6 14.7859zm4.2392-4.3223l.357.3501-.357-.3501zm0-8.6724l.357-.35-.357.35zm-8.4784 0l-.357-.35.357.35zm0 8.6724l.357-.3501-.357.3501zM6.357 15.136l4.2392-4.3223-.714-.7002-4.2392 4.3223.714.7002zm4.2392-4.3223c2.5384-2.5882 2.5384-6.7844 0-9.3726l-.714.7002c2.157 2.1993 2.157 5.773 0 7.9722l.714.7002zm0-9.3726c-2.5384-2.5881-6.654-2.5881-9.1924 0l.714.7002c2.1463-2.1884 5.618-2.1884 7.7645 0l.7139-.7002zm-9.1924 0c-2.5384 2.5882-2.5384 6.7844 0 9.3726l.714-.7002c-2.157-2.1993-2.157-5.7729 0-7.9722l-.714-.7002zm0 9.3726L5.643 15.136l.714-.7002-4.2393-4.3223-.7139.7002z"/>
  <path transform="translate(4.5 4.5)" fill="#262626" d="M2 4.5c1.3807 0 2.5-1.1193 2.5-2.5h-1c0 .8284-.6716 1.5-1.5 1.5v1zM4.5 2C4.5.6193 3.3807-.5 2-.5v1c.8284 0 1.5.6716 1.5 1.5h1zM2-.5C.6193-.5-.5.6193-.5 2h1C.5 1.1716 1.1716.5 2 .5v-1zM-.5 2C-.5 3.3807.6193 4.5 2 4.5v-1C1.1716 3.5.5 2.8284.5 2h-1z"/>
</svg>
